src/images/landing-logo.svg

<svg width="680" height="230" viewBox="0 0 680 230" fill="none" xmlns="http://www.w3.org/2000/svg">
<path opacity="0.7" fill-rule="evenodd" clip-rule="evenodd" d="M205.902 209.31C199.665 213.371 193.38 216.812 187.146 219.592C162.509 230.575 139.001 231.107 122.059 219.378C118.191 216.701 114.804 213.48 111.899 209.784C129.87 197.718 147.328 180.617 162.042 159.474C197.454 108.59 205.325 51.0416 183.502 20.7194C189.754 16.6454 196.054 13.1945 202.303 10.4084C226.939 -0.574862 250.447 -1.10711 267.39 10.6216C271.248 13.2925 274.628 16.5037 277.527 20.1878C259.541 32.2546 242.067 49.3662 227.341 70.5261C191.918 121.426 184.053 178.995 205.902 209.31ZM182.301 19.1169C213.607 -1.31912 246.258 -6.43989 268.532 8.98019C272.614 11.8058 276.169 15.198 279.204 19.0782C310.481 -1.32558 343.094 -6.43014 365.347 8.98019C369.44 11.8151 373.005 15.2204 376.044 19.1167C407.35 -1.31916 440.001 -6.43983 462.276 8.98019C466.357 11.8057 469.912 15.1977 472.947 19.0778C504.224 -1.32565 536.836 -6.43004 559.089 8.98019C563.183 11.8152 566.747 15.2207 569.787 19.1172C601.093 -1.31908 633.744 -6.43994 656.019 8.98019C671.32 19.5731 679.227 38.1295 680 60.5071H677.998C677.227 38.5769 669.477 20.7296 654.876 10.6216C637.934 -1.10711 614.426 -0.574862 589.789 10.4084C583.54 13.1946 577.24 16.6455 570.988 20.7196C592.811 51.0419 584.94 108.59 549.528 159.474C534.814 180.617 517.356 197.718 499.386 209.783C502.29 213.48 505.677 216.701 509.545 219.378C526.488 231.107 549.996 230.575 574.632 219.592C585.417 214.784 596.35 207.996 606.933 199.442V202.003C572.128 229.61 533.617 238.475 508.403 221.02C504.311 218.187 500.748 214.785 497.709 210.893C466.419 231.321 433.786 236.437 411.522 221.02C407.439 218.192 403.882 214.796 400.847 210.912C369.554 231.324 336.924 236.433 314.659 221.02C310.568 218.187 307.005 214.786 303.966 210.894C272.676 231.321 240.044 236.437 217.78 221.02C213.696 218.192 210.139 214.796 207.104 210.911C175.812 231.324 143.181 236.433 120.916 221.02C116.825 218.187 113.262 214.786 110.223 210.894C78.9325 231.321 46.3 236.437 24.0366 221.02C-11.4323 196.458 -7.15156 129.079 33.5978 70.5261C74.3472 11.973 136.134 -15.5821 171.603 8.98019C175.697 11.8152 179.261 15.2206 182.301 19.1169ZM109.021 209.291C102.777 213.361 96.485 216.808 90.2433 219.591C65.6153 230.575 42.1155 231.107 25.179 219.378C8.2426 207.65 0.527264 185.501 2.23353 158.644C3.93702 131.831 15.0404 100.693 35.242 71.6647C55.4437 42.6368 80.8083 21.3742 105.396 10.4087C130.024 -0.574595 153.524 -1.10674 170.461 10.6218C174.331 13.302 177.72 16.5264 180.625 20.2268C162.653 32.2914 145.196 49.389 130.481 70.5261C95.0526 121.416 87.1812 178.972 109.021 209.291ZM110.695 208.185C101.734 195.784 97.8435 178.501 99.1055 158.644C100.81 131.831 111.917 100.692 132.125 71.6645C146.741 50.6704 164.058 33.7382 181.828 21.8255C190.781 34.2256 194.667 51.5045 193.406 71.3557C191.703 98.1688 180.599 129.307 160.398 158.335C145.783 179.336 128.465 196.272 110.695 208.185ZM207.576 208.204C198.608 195.802 194.715 178.511 195.977 158.644C197.681 131.831 208.784 100.693 228.986 71.6647C243.613 50.647 260.947 33.7002 278.732 21.7854C286.033 31.8722 289.973 45.1944 290.511 60.5071H292.514C291.975 44.9062 287.969 31.1625 280.407 20.6797C286.637 16.623 292.913 13.1857 299.14 10.4087C323.768 -0.574595 347.268 -1.10674 364.204 10.6218C368.075 13.3019 371.463 16.5263 374.368 20.2265C356.397 32.2912 338.939 49.3889 324.224 70.5261C288.796 121.416 280.924 178.972 302.765 209.292C296.52 213.361 290.229 216.808 283.987 219.591C259.359 230.575 235.859 231.107 218.923 219.378C215.062 216.705 211.681 213.49 208.781 209.802C212.363 207.399 215.923 204.797 219.446 202.003V199.442C215.529 202.608 211.564 205.533 207.576 208.204ZM484.255 60.5071C483.717 45.1941 479.776 31.8718 472.475 21.785C454.689 33.6998 437.355 50.6467 422.728 71.6647C402.526 100.693 391.423 131.831 389.719 158.644C388.457 178.511 392.351 195.802 401.319 208.204C405.307 205.533 409.272 202.609 413.19 199.442V202.003C409.666 204.797 406.105 207.4 402.524 209.802C405.424 213.491 408.805 216.705 412.665 219.378C429.601 231.107 453.101 230.575 477.729 219.591C483.971 216.808 490.263 213.361 496.507 209.291C474.668 178.972 482.539 121.416 517.967 70.5261C532.682 49.3891 550.139 32.2916 568.111 20.227C565.206 16.5265 561.817 13.3021 557.946 10.6218C541.01 -1.10674 517.51 -0.574595 492.882 10.4087C486.656 13.1856 480.379 16.6228 474.149 20.6792C481.712 31.1621 485.718 44.9059 486.257 60.5071H484.255ZM461.133 10.6216C464.991 13.2924 468.37 16.5034 471.269 20.1873C453.283 32.2542 435.81 49.366 421.084 70.5261C385.66 121.426 377.796 178.996 399.645 209.31C393.407 213.371 387.123 216.812 380.889 219.592C356.252 230.575 332.745 231.107 315.802 219.378C311.934 216.701 308.547 213.48 305.643 209.784C323.614 197.719 341.071 180.617 355.786 159.474C391.198 108.59 399.069 51.0414 377.245 20.7192C383.497 16.6452 389.797 13.1945 396.046 10.4084C420.682 -0.574862 444.19 -1.10711 461.133 10.6216ZM547.883 158.335C533.269 179.336 515.951 196.272 498.181 208.185C489.22 195.784 485.33 178.501 486.592 158.644C488.296 131.831 499.403 100.692 519.611 71.6645C534.227 50.6706 551.544 33.7384 569.314 21.8258C578.267 34.2258 582.153 51.5047 580.892 71.3557C579.188 98.1688 568.085 129.307 547.883 158.335ZM304.438 208.185C322.209 196.272 339.526 179.336 354.141 158.335C374.343 129.307 385.446 98.1688 387.15 71.3557C388.411 51.5044 384.525 34.2254 375.572 21.8253C357.801 33.738 340.484 50.6703 325.868 71.6645C305.66 100.692 294.553 131.831 292.849 158.644C291.587 178.501 295.477 195.784 304.438 208.185Z" fill="#4A4A4A"/>
</svg>

<svg width="680" height="230" fill="none" xmlns="http://www.w3.org/2000/svg"><path opacity=".7" fill-rule="evenodd" clip-rule="evenodd" d="M205.902 209.31c-6.237 4.061-12.522 7.502-18.756 10.282-24.637 10.983-48.145 11.515-65.087-.214-3.868-2.677-7.255-5.898-10.16-9.594 17.971-12.066 35.429-29.167 50.143-50.31 35.412-50.884 43.283-108.432 21.46-138.755 6.252-4.074 12.552-7.525 18.801-10.31 24.636-10.984 48.144-11.516 65.087.213 3.858 2.67 7.238 5.882 10.137 9.566-17.986 12.067-35.46 29.178-50.186 50.338-35.423 50.9-43.288 108.469-21.439 138.784ZM182.301 19.117C213.607-1.32 246.258-6.44 268.532 8.98c4.082 2.826 7.637 6.218 10.672 10.098C310.481-1.326 343.094-6.43 365.347 8.98a48.69 48.69 0 0 1 10.697 10.137C407.35-1.32 440.001-6.44 462.276 8.98c4.081 2.826 7.636 6.218 10.671 10.098C504.224-1.326 536.836-6.43 559.089 8.98c4.094 2.835 7.658 6.24 10.698 10.137C601.093-1.319 633.744-6.44 656.019 8.98 671.32 19.573 679.227 38.13 680 60.507h-2.002c-.771-21.93-8.521-39.777-23.122-49.885-16.942-11.73-40.45-11.197-65.087-.214-6.249 2.787-12.549 6.237-18.801 10.312 21.823 30.322 13.952 87.87-21.46 138.754-14.714 21.143-32.172 38.244-50.142 50.309 2.904 3.697 6.291 6.918 10.159 9.595 16.943 11.729 40.451 11.197 65.087.214 10.785-4.808 21.718-11.596 32.301-20.15v2.561c-34.805 27.607-73.316 36.472-98.53 19.017a48.71 48.71 0 0 1-10.694-10.127c-31.29 20.428-63.923 25.544-86.187 10.127-4.083-2.828-7.64-6.224-10.675-10.108-31.293 20.412-63.923 25.521-86.188 10.108a48.724 48.724 0 0 1-10.693-10.126c-31.29 20.427-63.922 25.543-86.186 10.126-4.084-2.828-7.641-6.224-10.676-10.109-31.292 20.413-63.923 25.522-86.188 10.109a48.724 48.724 0 0 1-10.693-10.126c-31.29 20.427-63.923 25.543-86.186 10.126-35.47-24.562-31.189-91.941 9.56-150.494C74.348 11.973 136.135-15.582 171.604 8.98c4.094 2.835 7.658 6.24 10.698 10.137Zm-73.28 190.174c-6.244 4.07-12.536 7.517-18.778 10.3-24.628 10.984-48.127 11.516-65.064-.213C8.243 207.65.527 185.501 2.234 158.644c1.703-26.813 12.806-57.951 33.008-86.98 20.202-29.027 45.566-50.29 70.154-61.255 24.628-10.984 48.128-11.516 65.065.213 3.87 2.68 7.259 5.904 10.164 9.605-17.972 12.064-35.429 29.162-50.144 50.3-35.428 50.889-43.3 108.445-21.46 138.764Zm1.674-1.106c-8.961-12.401-12.851-29.684-11.59-49.541 1.705-26.813 12.812-57.952 33.02-86.98 14.616-20.994 31.933-37.926 49.703-49.838 8.953 12.4 12.839 29.678 11.578 49.53-1.703 26.813-12.807 57.951-33.008 86.979-14.615 21.001-31.933 37.937-49.703 49.85Zm96.881.019c-8.968-12.402-12.861-29.693-11.599-49.56 1.704-26.813 12.807-57.951 33.009-86.98 14.627-21.017 31.961-37.964 49.746-49.879 7.301 10.087 11.241 23.41 11.779 38.722h2.003c-.539-15.6-4.545-29.344-12.107-39.827 6.23-4.057 12.506-7.494 18.733-10.271 24.628-10.984 48.128-11.516 65.064.213 3.871 2.68 7.259 5.904 10.164 9.605-17.971 12.064-35.429 29.162-50.144 50.3-35.428 50.889-43.3 108.445-21.459 138.765-6.245 4.069-12.536 7.516-18.778 10.299-24.628 10.984-48.128 11.516-65.064-.213-3.861-2.673-7.242-5.888-10.142-9.576a166.092 166.092 0 0 0 10.665-7.799v-2.561a164.804 164.804 0 0 1-11.87 8.762ZM484.255 60.507c-.538-15.313-4.479-28.635-11.78-38.722-17.786 11.915-35.12 28.862-49.747 49.88-20.202 29.028-31.305 60.166-33.009 86.979-1.262 19.867 2.632 37.158 11.6 49.56a164.74 164.74 0 0 0 11.871-8.762v2.561a166.285 166.285 0 0 1-10.666 7.799c2.9 3.689 6.281 6.903 10.141 9.576 16.936 11.729 40.436 11.197 65.064.213 6.242-2.783 12.534-6.23 18.778-10.3-21.839-30.319-13.968-87.875 21.46-138.765 14.715-21.137 32.172-38.234 50.144-50.299-2.905-3.7-6.294-6.925-10.165-9.605-16.936-11.729-40.436-11.197-65.064-.213-6.226 2.777-12.503 6.214-18.733 10.27 7.563 10.483 11.569 24.227 12.108 39.828h-2.002Zm-23.122-49.885c3.858 2.67 7.237 5.881 10.136 9.565-17.986 12.067-35.459 29.179-50.185 50.34-35.424 50.899-43.288 108.469-21.439 138.783-6.238 4.061-12.522 7.502-18.756 10.282-24.637 10.983-48.144 11.515-65.087-.214-3.868-2.677-7.255-5.898-10.159-9.594 17.971-12.065 35.428-29.167 50.143-50.31 35.412-50.884 43.283-108.433 21.459-138.755 6.252-4.074 12.552-7.525 18.801-10.31 24.636-10.984 48.144-11.516 65.087.213Zm86.75 147.713c-14.614 21.001-31.932 37.937-49.702 49.85-8.961-12.401-12.851-29.684-11.589-49.541 1.704-26.813 12.811-57.952 33.019-86.98 14.616-20.993 31.933-37.926 49.703-49.838 8.953 12.4 12.839 29.679 11.578 49.53-1.704 26.813-12.807 57.951-33.009 86.979Zm-243.445 49.85c17.771-11.913 35.088-28.849 49.703-49.85 20.202-29.028 31.305-60.166 33.009-86.98 1.261-19.85-2.625-37.13-11.578-49.53-17.771 11.913-35.088 28.845-49.704 49.84-20.208 29.027-31.315 60.166-33.019 86.979-1.262 19.857 2.628 37.14 11.589 49.541Z" fill="#4A4A4A"/></svg>
